X:1
T:Quam Dilecta, 66.66
T:Quam Dilecta, 66.66
T:Henry Lascelles Jenner, 1861
T:Public Domain Courtesy of the Cyber Hymnal™
C:Henry Lascelles Jenner, 1861
Z:Public Domain
Z:Courtesy of the Cyber Hymnal™
%%score ( 1 2 ) ( 3 4 )
L:1/8
Q:1/4=113
M:4/4
K:F
V:1 treble 
V:2 treble 
V:3 bass 
V:4 bass 
V:1
 [FA]2 | [FB]2 [FA]2 [EA]2 [EG]2 | F6 [Fc]2 | [Fd]2 [CA]2 [DG]2 [DF]2 | [EG]6 [EG]2 | %5
 [FA]2 [Fc]2 [Gc]2 [Fd]2 | [Ec]6 G2 | [FA]2 [FB]2 A3 z G | F6 |] %9
V:2
 x2 | x8 | F6 x2 | x8 | x8 | x8 | x6 G2 | x4 F2 E2 x | F6 |] %9
V:3
 [F,C]2 | [F,D]2 [F,C]2 [C,C]2 [C,B,]2 | [D,A,]6 [A,,C]2 | [B,,B,]2 [F,A,]2 [B,,B,]2 [D,A,]2 | %4
 [C,C]6 [C,C]2 | [F,C]2 [A,C]2 [E,C]2 [G,=B,]2 | [C,C]6 [E,C]2 | [F,C]2 [D,B,]2 C3 z B, | %8
 [F,A,]6 |] %9
V:4
 x2 | x8 | x8 | x8 | x8 | x8 | x8 | x4 C,2 C,2 x | x6 |] %9

